X: 2595
T: Balmoral Castle
R: reel
M: 4/4
K: Amajor
F2 AG FECF|ECB,C EFGE|F2 AG FGAc|BGEG (3FFF F2:|
fcfg a2 gf|eBef gfeg|fcfg a2 gf|ecBG (3FFF F2|
fcfg a2 gf|eBef gfeg|(3fga gf ecBG|FcBG (3FFF F2|

